Newaita-dark/apps/32/baka-mplayer.svg

<?xml version="1.0" encoding="UTF-8"?>
<svg xmlns="http://www.w3.org/2000/svg" xmlns:xlink="http://www.w3.org/1999/xlink" width="32pt" height="32pt" viewBox="0 0 32 32" version="1.1">
<defs>
<radialGradient id="radial0" gradientUnits="userSpaceOnUse" cx="450.908936" cy="189.579361" fx="450.908936" fy="189.579361" r="21.166656" gradientTransform="matrix(0.00000017417,-0.0781325,-0.140638,-0.000000101539,43.53087,63.595329)">
<stop offset="0" style="stop-color:rgb(0%,0%,0%);stop-opacity:0.313725;"/>
<stop offset="0.222222" style="stop-color:rgb(0%,0%,0%);stop-opacity:0.27451;"/>
<stop offset="1" style="stop-color:rgb(0%,0%,0%);stop-opacity:0;"/>
</radialGradient>
<radialGradient id="radial1" gradientUnits="userSpaceOnUse" cx="450.908936" cy="189.579361" fx="450.908936" fy="189.579361" r="21.166656" gradientTransform="matrix(-0.00000017417,0.0781325,0.140638,0.000000101539,-11.777836,-7.527482)">
<stop offset="0" style="stop-color:rgb(0%,0%,0%);stop-opacity:0.313725;"/>
<stop offset="0.222222" style="stop-color:rgb(0%,0%,0%);stop-opacity:0.27451;"/>
<stop offset="1" style="stop-color:rgb(0%,0%,0%);stop-opacity:0;"/>
</radialGradient>
<radialGradient id="radial2" gradientUnits="userSpaceOnUse" cx="450.908936" cy="189.579361" fx="450.908936" fy="189.579361" r="21.166656" gradientTransform="matrix(-0.00000017417,-0.0781325,0.140638,-0.000000101539,-11.777836,63.595329)">
<stop offset="0" style="stop-color:rgb(0%,0%,0%);stop-opacity:0.313725;"/>
<stop offset="0.222222" style="stop-color:rgb(0%,0%,0%);stop-opacity:0.27451;"/>
<stop offset="1" style="stop-color:rgb(0%,0%,0%);stop-opacity:0;"/>
</radialGradient>
<radialGradient id="radial3" gradientUnits="userSpaceOnUse" cx="450.908936" cy="189.579361" fx="450.908936" fy="189.579361" r="21.166656" gradientTransform="matrix(0.00000017417,0.0781325,-0.140638,0.000000101539,43.530868,-7.527483)">
<stop offset="0" style="stop-color:rgb(0%,0%,0%);stop-opacity:0.313725;"/>
<stop offset="0.222222" style="stop-color:rgb(0%,0%,0%);stop-opacity:0.27451;"/>
<stop offset="1" style="stop-color:rgb(0%,0%,0%);stop-opacity:0;"/>
</radialGradient>
<linearGradient id="linear0" gradientUnits="userSpaceOnUse" x1="255.323059" y1="233.5" x2="255.323044" y2="254.666656" gradientTransform="matrix(0.0133601,0,0,0.062506,12.465386,13.438784)">
<stop offset="0" style="stop-color:rgb(0%,0%,0%);stop-opacity:0.27451;"/>
<stop offset="1" style="stop-color:rgb(0%,0%,0%);stop-opacity:0;"/>
</linearGradient>
<linearGradient id="linear1" gradientUnits="userSpaceOnUse" x1="254" y1="-168.666672" x2="254" y2="233.5" gradientTransform="matrix(0.0542815,0,0,0.0542815,2.089015,15.359195)">
<stop offset="0" style="stop-color:rgb(38.039216%,38.039216%,38.039216%);stop-opacity:1;"/>
<stop offset="1" style="stop-color:rgb(25.882353%,25.882353%,25.882353%);stop-opacity:1;"/>
</linearGradient>
<linearGradient id="linear2" gradientUnits="userSpaceOnUse" x1="254" y1="212.333328" x2="254" y2="154.125" gradientTransform="matrix(1,0,0,1,0,-15.875267)">
<stop offset="0" style="stop-color:rgb(87.843137%,87.843137%,87.843137%);stop-opacity:1;"/>
<stop offset="1" style="stop-color:rgb(93.333333%,93.333333%,93.333333%);stop-opacity:1;"/>
</linearGradient>
<linearGradient id="linear3" gradientUnits="userSpaceOnUse" x1="169.333328" y1="117.083344" x2="169.333328" y2="-31.083334" >
<stop offset="0" style="stop-color:rgb(87.843137%,87.843137%,87.843137%);stop-opacity:1;"/>
<stop offset="1" style="stop-color:rgb(93.333333%,93.333333%,93.333333%);stop-opacity:1;"/>
</linearGradient>
<linearGradient id="linear4" gradientUnits="userSpaceOnUse" x1="169.333328" y1="117.083344" x2="169.333328" y2="-31.083334" gradientTransform="matrix(1,0,0,1,169.333344,0)">
<stop offset="0" style="stop-color:rgb(87.843137%,87.843137%,87.843137%);stop-opacity:1;"/>
<stop offset="1" style="stop-color:rgb(93.333333%,93.333333%,93.333333%);stop-opacity:1;"/>
</linearGradient>
</defs>
<g id="surface1">
<path style=" stroke:none;fill-rule:nonzero;fill:url(#radial0);" d="M 17.199219 28.035156 L 19.84375 28.035156 L 19.84375 26.710938 L 17.199219 26.710938 Z M 17.199219 28.035156 "/>
<path style=" stroke:none;fill-rule:nonzero;fill:url(#radial1);" d="M 14.554688 28.035156 L 11.90625 28.035156 L 11.90625 29.355469 L 14.554688 29.355469 Z M 14.554688 28.035156 "/>
<path style=" stroke:none;fill-rule:nonzero;fill:url(#radial2);" d="M 14.554688 28.035156 L 11.90625 28.035156 L 11.90625 26.710938 L 14.554688 26.710938 Z M 14.554688 28.035156 "/>
<path style=" stroke:none;fill-rule:nonzero;fill:url(#radial3);" d="M 17.199219 28.035156 L 19.84375 28.035156 L 19.84375 29.355469 L 17.199219 29.355469 Z M 17.199219 28.035156 "/>
<path style=" stroke:none;fill-rule:nonzero;fill:url(#linear0);" d="M 14.554688 27.703125 L 17.199219 27.703125 L 17.199219 29.355469 L 14.554688 29.355469 Z M 14.554688 27.703125 "/>
<path style=" stroke:none;fill-rule:nonzero;fill:url(#linear1);" d="M 5.800781 3.042969 C 2.316406 3.0625 4.746094 14.835938 4.992188 17.96875 C 5.425781 23.613281 10.117188 28.035156 15.875 28.035156 C 21.636719 28.035156 26.328125 23.613281 26.757812 17.96875 C 27.007812 14.835938 29.4375 3.0625 25.953125 3.042969 C 24.175781 3.035156 20.949219 4.628906 18.382812 6.492188 C 17.578125 6.304688 16.738281 6.203125 15.875 6.203125 C 15.011719 6.203125 14.171875 6.304688 13.367188 6.492188 C 10.804688 4.628906 7.578125 3.035156 5.800781 3.042969 Z M 5.800781 3.042969 "/>
<path style=" stroke:none;fill-rule:nonzero;fill:rgb(100%,100%,100%);fill-opacity:0.392157;" d="M 5.800781 3.042969 C 4.34375 3.050781 3.921875 5.113281 3.941406 7.738281 C 3.960938 5.277344 4.40625 3.386719 5.800781 3.382812 C 7.578125 3.375 10.804688 4.96875 13.367188 6.828125 C 14.171875 6.640625 15.011719 6.542969 15.875 6.542969 C 16.738281 6.542969 17.578125 6.640625 18.382812 6.828125 C 20.949219 4.96875 24.175781 3.375 25.953125 3.382812 C 27.347656 3.386719 27.792969 5.277344 27.8125 7.738281 C 27.832031 5.113281 27.410156 3.050781 25.953125 3.042969 C 24.175781 3.035156 20.949219 4.628906 18.382812 6.492188 C 17.578125 6.304688 16.738281 6.203125 15.875 6.203125 C 15.011719 6.203125 14.171875 6.304688 13.367188 6.492188 C 10.804688 4.628906 7.578125 3.035156 5.800781 3.042969 Z M 5.800781 3.042969 "/>
<path style=" stroke:none;fill-rule:nonzero;fill:rgb(0%,0%,0%);fill-opacity:0.235294;" d="M 3.941406 7.292969 C 3.894531 11 4.84375 16.070312 4.992188 17.96875 C 5.425781 23.613281 10.117188 28.035156 15.875 28.035156 C 21.636719 28.035156 26.328125 23.613281 26.757812 17.96875 C 26.910156 16.070312 27.859375 11 27.8125 7.292969 C 27.765625 10.933594 26.902344 15.597656 26.757812 17.402344 C 26.328125 23.050781 21.636719 27.46875 15.875 27.46875 C 10.117188 27.46875 5.425781 23.050781 4.992188 17.402344 C 4.851562 15.597656 3.984375 10.933594 3.941406 7.292969 Z M 3.941406 7.292969 "/>
<path style=" stroke:none;fill-rule:nonzero;fill:rgb(12.941177%,12.941177%,12.941177%);fill-opacity:1;" d="M 5.800781 2.949219 C 5.339844 2.953125 4.960938 3.15625 4.683594 3.5 C 4.402344 3.847656 4.207031 4.335938 4.078125 4.921875 C 3.816406 6.09375 3.800781 7.671875 3.902344 9.34375 C 4.105469 12.6875 4.777344 16.425781 4.898438 17.976562 C 5.335938 23.671875 10.066406 28.128906 15.875 28.128906 C 21.6875 28.128906 26.417969 23.671875 26.851562 17.976562 C 26.976562 16.425781 27.644531 12.6875 27.847656 9.34375 C 27.949219 7.671875 27.9375 6.09375 27.675781 4.921875 C 27.542969 4.335938 27.351562 3.847656 27.070312 3.5 C 26.789062 3.15625 26.414062 2.953125 25.953125 2.949219 C 25.035156 2.945312 23.78125 3.347656 22.421875 3.980469 C 21.078125 4.609375 19.640625 5.464844 18.363281 6.390625 C 17.566406 6.207031 16.734375 6.109375 15.875 6.109375 C 15.019531 6.109375 14.1875 6.207031 13.390625 6.390625 C 12.109375 5.464844 10.671875 4.609375 9.328125 3.980469 C 7.972656 3.347656 6.71875 2.945312 5.800781 2.949219 Z M 5.800781 3.136719 C 6.660156 3.132812 7.90625 3.523438 9.25 4.152344 C 10.59375 4.777344 12.035156 5.640625 13.3125 6.566406 L 13.347656 6.59375 L 13.390625 6.582031 C 14.1875 6.394531 15.019531 6.296875 15.875 6.296875 C 16.734375 6.296875 17.566406 6.394531 18.363281 6.582031 L 18.40625 6.59375 L 18.441406 6.566406 C 19.714844 5.640625 21.160156 4.777344 22.503906 4.152344 C 23.847656 3.523438 25.089844 3.132812 25.953125 3.136719 C 26.359375 3.136719 26.671875 3.308594 26.925781 3.621094 C 27.175781 3.933594 27.363281 4.394531 27.492188 4.960938 C 27.746094 6.101562 27.761719 7.667969 27.660156 9.332031 C 27.460938 12.660156 26.789062 16.378906 26.664062 17.960938 C 26.238281 23.558594 21.589844 27.941406 15.875 27.941406 C 10.164062 27.941406 5.515625 23.558594 5.085938 17.960938 C 4.960938 16.378906 4.292969 12.660156 4.089844 9.332031 C 3.988281 7.667969 4.007812 6.101562 4.261719 4.960938 C 4.386719 4.394531 4.574219 3.933594 4.828125 3.621094 C 5.082031 3.308594 5.390625 3.136719 5.800781 3.136719 Z M 5.800781 3.136719 "/>
<path style="fill-rule:nonzero;fill:url(#linear2);stroke-width:3;stroke-linecap:round;stroke-linejoin:round;stroke:rgb(12.941177%,12.941177%,12.941177%);stroke-opacity:1;stroke-miterlimit:4;" d="M 253.975747 138.278764 C 230.540484 138.278764 211.667287 148.840255 211.667287 162.08899 L 211.667287 164.838727 C 211.792275 182.39955 230.602979 196.460707 253.975747 196.460707 C 277.411009 196.460707 296.221712 182.39955 296.3467 164.838727 L 296.3467 162.08899 C 296.3467 148.840255 277.473503 138.278764 253.975747 138.278764 Z M 253.975747 138.278764 " transform="matrix(0.062506,0,0,0.062506,0,13.438783)"/>
<path style="fill-rule:nonzero;fill:url(#linear3);stroke-width:3;stroke-linecap:round;stroke-linejoin:round;stroke:rgb(12.941177%,12.941177%,12.941177%);stroke-opacity:1;stroke-miterlimit:4;" d="M 169.358827 -31.080063 C 128.300248 -31.080063 95.240905 1.97928 95.240905 42.975365 C 95.240905 84.033944 128.300248 117.093287 169.358827 117.093287 C 210.354912 117.093287 243.414255 84.033944 243.414255 42.975365 C 243.414255 1.97928 210.354912 -31.080063 169.358827 -31.080063 Z M 169.358827 0.666905 C 192.794089 0.666905 211.667287 19.540103 211.667287 42.975365 C 211.667287 66.473121 192.794089 85.346318 169.358827 85.346318 C 145.861071 85.346318 126.987873 66.473121 126.987873 42.975365 C 126.987873 19.540103 145.861071 0.666905 169.358827 0.666905 Z M 169.358827 0.666905 " transform="matrix(0.062506,0,0,0.062506,0,13.438783)"/>
<path style="fill-rule:nonzero;fill:url(#linear4);stroke-width:3;stroke-linecap:round;stroke-linejoin:round;stroke:rgb(12.941177%,12.941177%,12.941177%);stroke-opacity:1;stroke-miterlimit:4;" d="M 338.65516 -31.080063 C 297.596581 -31.080063 264.599732 1.97928 264.599732 42.975365 C 264.599732 84.033944 297.596581 117.093287 338.65516 117.093287 C 379.713739 117.093287 412.773082 84.033944 412.773082 42.975365 C 412.773082 1.97928 379.713739 -31.080063 338.65516 -31.080063 Z M 338.65516 0.666905 C 362.090422 0.666905 381.026114 19.540103 381.026114 42.975365 C 381.026114 66.473121 362.090422 85.346318 338.65516 85.346318 C 315.219898 85.346318 296.3467 66.473121 296.3467 42.975365 C 296.3467 19.540103 315.219898 0.666905 338.65516 0.666905 Z M 338.65516 0.666905 " transform="matrix(0.062506,0,0,0.062506,0,13.438783)"/>
</g>
</svg>

<svg xmlns="http://www.w3.org/2000/svg" width="32pt" height="32pt" viewBox="0 0 32 32"><defs><radialGradient id="a" gradientUnits="userSpaceOnUse" cx="450.909" cy="189.579" fx="450.909" fy="189.579" r="21.167" gradientTransform="matrix(0 -.07813 -.14064 0 43.53 63.595)"><stop offset="0" stop-opacity=".314"/><stop offset=".222" stop-opacity=".275"/><stop offset="1" stop-opacity="0"/></radialGradient><radialGradient id="b" gradientUnits="userSpaceOnUse" cx="450.909" cy="189.579" fx="450.909" fy="189.579" r="21.167" gradientTransform="matrix(0 .07813 .14064 0 -11.778 -7.527)"><stop offset="0" stop-opacity=".314"/><stop offset=".222" stop-opacity=".275"/><stop offset="1" stop-opacity="0"/></radialGradient><radialGradient id="c" gradientUnits="userSpaceOnUse" cx="450.909" cy="189.579" fx="450.909" fy="189.579" r="21.167" gradientTransform="matrix(0 -.07813 .14064 0 -11.778 63.595)"><stop offset="0" stop-opacity=".314"/><stop offset=".222" stop-opacity=".275"/><stop offset="1" stop-opacity="0"/></radialGradient><radialGradient id="d" gradientUnits="userSpaceOnUse" cx="450.909" cy="189.579" fx="450.909" fy="189.579" r="21.167" gradientTransform="matrix(0 .07813 -.14064 0 43.53 -7.527)"><stop offset="0" stop-opacity=".314"/><stop offset=".222" stop-opacity=".275"/><stop offset="1" stop-opacity="0"/></radialGradient><linearGradient id="e" gradientUnits="userSpaceOnUse" x1="255.323" y1="233.5" x2="255.323" y2="254.667" gradientTransform="matrix(.01336 0 0 .0625 12.465 13.439)"><stop offset="0" stop-opacity=".275"/><stop offset="1" stop-opacity="0"/></linearGradient><linearGradient id="f" gradientUnits="userSpaceOnUse" x1="254" y1="-168.667" x2="254" y2="233.5" gradientTransform="translate(2.089 15.36) scale(.05428)"><stop offset="0" stop-color="#616161"/><stop offset="1" stop-color="#424242"/></linearGradient><linearGradient id="g" gradientUnits="userSpaceOnUse" x1="254" y1="212.333" x2="254" y2="154.125" gradientTransform="translate(0 -15.875)"><stop offset="0" stop-color="#e0e0e0"/><stop offset="1" stop-color="#eee"/></linearGradient><linearGradient id="h" gradientUnits="userSpaceOnUse" x1="169.333" y1="117.083" x2="169.333" y2="-31.083"><stop offset="0" stop-color="#e0e0e0"/><stop offset="1" stop-color="#eee"/></linearGradient><linearGradient id="i" gradientUnits="userSpaceOnUse" x1="169.333" y1="117.083" x2="169.333" y2="-31.083" gradientTransform="translate(169.333)"><stop offset="0" stop-color="#e0e0e0"/><stop offset="1" stop-color="#eee"/></linearGradient></defs><path d="M17.2 28.035h2.644v-1.324h-2.645zm0 0" fill="url(#a)"/><path d="M14.555 28.035h-2.649v1.32h2.649zm0 0" fill="url(#b)"/><path d="M14.555 28.035h-2.649v-1.324h2.649zm0 0" fill="url(#c)"/><path d="M17.2 28.035h2.644v1.32h-2.645zm0 0" fill="url(#d)"/><path d="M14.555 27.703h2.644v1.652h-2.644zm0 0" fill="url(#e)"/><path d="M5.8 3.043c-3.484.02-1.054 11.793-.808 14.926a10.896 10.896 0 0 0 10.883 10.066A10.89 10.89 0 0 0 26.758 17.97c.25-3.133 2.68-14.907-.805-14.926-1.777-.008-5.004 1.586-7.57 3.45a11.043 11.043 0 0 0-5.016 0c-2.562-1.864-5.789-3.458-7.566-3.45zm0 0" fill="url(#f)"/><path d="M5.8 3.043c-1.456.008-1.878 2.07-1.859 4.695.02-2.46.465-4.351 1.86-4.355 1.777-.008 5.004 1.586 7.566 3.445a11.042 11.042 0 0 1 2.508-.285c.863 0 1.703.098 2.508.285 2.566-1.86 5.793-3.453 7.57-3.445 1.395.004 1.84 1.894 1.86 4.355.019-2.625-.403-4.687-1.86-4.695-1.777-.008-5.004 1.586-7.57 3.45a11.043 11.043 0 0 0-5.016 0c-2.562-1.864-5.789-3.458-7.566-3.45zm0 0" fill="#fff" fill-opacity=".392"/><path d="M3.941 7.293C3.895 11 4.844 16.07 4.992 17.969a10.896 10.896 0 0 0 10.883 10.066A10.89 10.89 0 0 0 26.758 17.97C26.91 16.07 27.859 11 27.813 7.293c-.047 3.64-.91 8.305-1.055 10.11a10.888 10.888 0 0 1-10.883 10.066A10.893 10.893 0 0 1 4.992 17.402c-.14-1.804-1.008-6.468-1.05-10.109zm0 0" fill-opacity=".235"/><path d="M5.8 2.95c-.46.003-.84.206-1.116.55-.282.348-.477.836-.606 1.422-.262 1.172-.277 2.75-.176 4.422.203 3.344.875 7.082.996 8.633a10.987 10.987 0 0 0 10.977 10.152 10.982 10.982 0 0 0 10.977-10.152c.125-1.551.793-5.29.996-8.633.101-1.672.09-3.25-.172-4.422-.133-.586-.324-1.074-.606-1.422-.28-.344-.656-.547-1.117-.55-.918-.005-2.172.398-3.531 1.03a25.733 25.733 0 0 0-4.059 2.41 11.067 11.067 0 0 0-2.488-.28c-.855 0-1.688.097-2.484.28a25.943 25.943 0 0 0-4.063-2.41c-1.355-.632-2.61-1.035-3.527-1.03zm0 .187c.86-.004 2.106.386 3.45 1.015 1.344.625 2.785 1.489 4.063 2.414l.035.028.043-.012a10.838 10.838 0 0 1 2.484-.285c.86 0 1.691.098 2.488.285l.043.012.035-.028a25.327 25.327 0 0 1 4.063-2.414c1.344-.629 2.586-1.02 3.45-1.015.405 0 .718.172.972.484.25.313.437.774.566 1.34.254 1.14.27 2.707.168 4.371-.2 3.328-.87 7.047-.996 8.629a10.794 10.794 0 0 1-10.789 9.98 10.8 10.8 0 0 1-10.79-9.98c-.124-1.582-.792-5.3-.995-8.629-.102-1.664-.082-3.23.172-4.371.125-.566.312-1.027.566-1.34.254-.312.563-.484.973-.484zm0 0" fill="#212121"/><path d="M253.976 138.279c-23.436 0-42.309 10.561-42.309 23.81v2.75c.125 17.56 18.936 31.622 42.309 31.622 23.435 0 42.246-14.061 42.37-31.622v-2.75c0-13.249-18.872-23.81-42.37-23.81zm0 0" transform="matrix(.0625 0 0 .0625 0 13.439)" fill="url(#g)" stroke-width="3" stroke-linecap="round" stroke-linejoin="round" stroke="#212121"/><path d="M169.359-31.08C128.3-31.08 95.24 1.98 95.24 42.975c0 41.059 33.06 74.118 74.118 74.118 40.996 0 74.055-33.06 74.055-74.118 0-40.996-33.06-74.055-74.055-74.055zm0 31.747c23.435 0 42.308 18.873 42.308 42.308 0 23.498-18.873 42.371-42.308 42.371a42.247 42.247 0 0 1-42.371-42.37c0-23.436 18.873-42.31 42.37-42.31zm0 0" transform="matrix(.0625 0 0 .0625 0 13.439)" fill="url(#h)" stroke-width="3" stroke-linecap="round" stroke-linejoin="round" stroke="#212121"/><path d="M338.655-31.08c-41.058 0-74.055 33.06-74.055 74.055 0 41.059 32.997 74.118 74.055 74.118 41.059 0 74.118-33.06 74.118-74.118 0-40.996-33.06-74.055-74.118-74.055zm0 31.747c23.435 0 42.371 18.873 42.371 42.308 0 23.498-18.936 42.371-42.37 42.371-23.436 0-42.31-18.873-42.31-42.37 0-23.436 18.874-42.31 42.31-42.31zm0 0" transform="matrix(.0625 0 0 .0625 0 13.439)" fill="url(#i)" stroke-width="3" stroke-linecap="round" stroke-linejoin="round" stroke="#212121"/></svg>
